;FLAVOR:Marlin
;TIME:1165
;Filament used: 0.565912m
;Layer height: 0.2
;MINX:98.401
;MINY:96.97
;MINZ:0.2
;MAXX:136.6
;MAXY:138.029
;MAXZ:5
;Generated with Cura_SteamEngine 5.3.1
M140 S50
M105
M190 S50
M104 S200
M105
M109 S200
M82 ;absolute extrusion mode
; Ender 3 Custom Start G-code
G92 E0 ; Reset Extruder
G28 ; Home all axes
G1 Z2.0 F3000 ; Move Z Axis up little to prevent scratching of Heat Bed
G1 X0.1 Y20 Z0.3 F5000.0 ; Move to start position
G1 X0.1 Y200.0 Z0.3 F1500.0 E15 ; Draw the first line
G1 X0.4 Y200.0 Z0.3 F5000.0 ; Move to side a little
G1 X0.4 Y20 Z0.3 F1500.0 E30 ; Draw the second line
G92 E0 ; Reset Extruder
G1 Z2.0 F3000 ; Move Z Axis up little to prevent scratching of Heat Bed
G1 X5 Y20 Z0.3 F5000.0 ; Move over to prevent blob squish
G92 E0
G92 E0
G1 F2700 E-5
;LAYER_COUNT:25
;LAYER:0
M107
G0 F6000 X102.216 Y100.943 Z0.2
;TYPE:SKIRT
G1 F2700 E0
G1 F1200 X102.411 Y100.749 E0.00915
G1 X103.079 Y100.141 E0.03919
G1 X103.798 Y99.594 E0.06924
G1 X104.562 Y99.114 E0.09925
G1 X105.366 Y98.702 E0.1293
G1 X106.204 Y98.364 E0.15935
G1 X107.067 Y98.101 E0.18936
G1 X107.951 Y97.915 E0.2194
G1 X108.848 Y97.808 E0.24945
G1 X109.463 Y97.781 E0.26992
G1 X110.249 Y97.771 E0.29607
G1 X124.726 Y97.77 E0.77758
G1 X125.564 Y97.781 E0.80545
G1 X126.466 Y97.834 E0.8355
G1 X127.359 Y97.967 E0.86553
G1 X128.237 Y98.178 E0.89556
G1 X129.093 Y98.466 E0.9256
G1 X129.92 Y98.828 E0.95563
G1 X130.712 Y99.263 E0.98568
G1 X131.462 Y99.765 E1.0157
G1 X132.165 Y100.332 E1.04574
G1 X132.769 Y100.903 E1.07338
G1 X133.446 Y101.651 E1.10694
G1 X133.99 Y102.372 E1.13698
G1 X134.468 Y103.138 E1.16701
G1 X134.877 Y103.943 E1.19704
G1 X135.212 Y104.781 E1.22706
G1 X135.473 Y105.646 E1.25711
G1 X135.655 Y106.531 E1.28716
G1 X135.759 Y107.428 E1.3172
G1 X135.783 Y107.973 E1.33534
G1 X135.8 Y109.012 E1.3699
G1 X135.799 Y126.254 E1.94337
G1 X135.789 Y126.973 E1.96729
G1 X135.736 Y127.874 E1.99731
G1 X135.604 Y128.768 E2.02737
G1 X135.394 Y129.646 E2.05739
G1 X135.106 Y130.502 E2.08743
G1 X134.744 Y131.33 E2.11749
G1 X134.311 Y132.122 E2.14751
G1 X133.808 Y132.872 E2.17755
G1 X133.242 Y133.576 E2.20759
G1 X132.577 Y134.262 E2.23937
G1 X132.376 Y134.451 E2.24854
G1 X131.692 Y135.04 E2.27857
G1 X130.958 Y135.566 E2.3086
G1 X130.18 Y136.025 E2.33864
G1 X129.364 Y136.413 E2.3687
G1 X128.518 Y136.728 E2.39872
G1 X127.647 Y136.967 E2.42876
G1 X126.758 Y137.128 E2.45881
G1 X125.532 Y137.219 E2.4997
G1 X124.75 Y137.229 E2.52571
G1 X110.124 Y137.229 E3.01217
G1 X109.437 Y137.219 E3.03503
G1 X108.535 Y137.166 E3.06508
G1 X107.642 Y137.033 E3.09511
G1 X106.764 Y136.822 E3.12514
G1 X105.908 Y136.534 E3.15518
G1 X105.081 Y136.171 E3.18522
G1 X104.289 Y135.737 E3.21526
G1 X103.538 Y135.235 E3.2453
G1 X102.835 Y134.667 E3.27536
G1 X102.249 Y134.115 E3.30214
G1 X101.574 Y133.372 E3.33553
G1 X101.027 Y132.653 E3.36557
G1 X100.547 Y131.888 E3.39561
G1 X100.136 Y131.084 E3.42564
G1 X99.798 Y130.247 E3.45567
G1 X99.535 Y129.383 E3.48571
G1 X99.349 Y128.499 E3.51575
G1 X99.243 Y127.602 E3.54579
G1 X99.216 Y127.018 E3.56524
G1 X99.201 Y126.111 E3.59541
G1 X99.201 Y108.7 E4.1745
G1 X99.211 Y108.023 E4.19702
G1 X99.264 Y107.122 E4.22704
G1 X99.397 Y106.229 E4.25707
G1 X99.609 Y105.351 E4.28711
G1 X99.897 Y104.495 E4.31715
G1 X100.259 Y103.668 E4.34718
G1 X100.694 Y102.876 E4.37723
G1 X101.197 Y102.126 E4.40727
G1 X101.764 Y101.423 E4.4373
G1 X102.216 Y100.943 E4.45923
G0 F6000 X101.934 Y100.659
G1 F1200 X102.142 Y100.453 E4.46897
G1 X102.81 Y99.845 E4.49901
G1 X103.585 Y99.255 E4.53141
G1 X104.349 Y98.775 E4.56142
G1 X105.216 Y98.331 E4.59382
G1 X106.087 Y97.981 E4.62504
G1 X106.95 Y97.718 E4.65505
G1 X107.904 Y97.518 E4.68747
G1 X108.83 Y97.408 E4.71848
G1 X109.458 Y97.381 E4.73939
G1 X110.249 Y97.371 E4.7657
G1 X124.731 Y97.37 E5.24737
G1 X125.587 Y97.382 E5.27584
G1 X126.525 Y97.438 E5.3071
G1 X127.418 Y97.571 E5.33713
G1 X128.365 Y97.799 E5.36952
G1 X129.221 Y98.087 E5.39956
G1 X130.113 Y98.477 E5.43194
G1 X130.905 Y98.912 E5.462
G1 X131.713 Y99.454 E5.49436
G1 X132.44 Y100.041 E5.52544
G1 X133.044 Y100.612 E5.55308
G1 X133.743 Y101.383 E5.58769
G1 X134.329 Y102.16 E5.62006
G1 X134.825 Y102.957 E5.65129
G1 X135.234 Y103.762 E5.68132
G1 X135.595 Y104.665 E5.71366
G1 X135.865 Y105.565 E5.74491
G1 X136.047 Y106.45 E5.77497
G1 X136.159 Y107.41 E5.80711
G1 X136.183 Y107.966 E5.82562
G1 X136.2 Y109.012 E5.86042
G1 X136.199 Y126.26 E6.43409
G1 X136.189 Y126.979 E6.458
G1 X136.132 Y127.932 E6.48976
G1 X136 Y128.826 E6.51981
G1 X135.773 Y129.774 E6.55224
G1 X135.473 Y130.662 E6.58341
G1 X135.111 Y131.49 E6.61347
G1 X134.662 Y132.314 E6.64468
G1 X134.12 Y133.123 E6.67707
G1 X133.554 Y133.827 E6.70711
G1 X132.851 Y134.553 E6.74072
G1 X132.637 Y134.754 E6.75049
G1 X131.925 Y135.365 E6.78169
G1 X131.161 Y135.911 E6.81293
G1 X130.383 Y136.37 E6.84297
G1 X129.504 Y136.788 E6.87534
G1 X128.624 Y137.114 E6.90656
G1 X127.718 Y137.361 E6.93779
G1 X126.829 Y137.522 E6.96784
G1 X125.537 Y137.619 E7.01093
G1 X124.755 Y137.629 E7.03694
G1 X110.118 Y137.629 E7.52377
G1 X109.414 Y137.618 E7.54719
G1 X108.476 Y137.562 E7.57844
G1 X107.583 Y137.429 E7.60847
G1 X106.636 Y137.201 E7.64087
G1 X105.78 Y136.913 E7.67091
G1 X104.889 Y136.522 E7.70327
G1 X104.067 Y136.07 E7.73447
G1 X103.316 Y135.568 E7.76452
G1 X102.561 Y134.958 E7.7968
G1 X101.953 Y134.384 E7.82461
G1 X101.278 Y133.641 E7.858
G1 X100.688 Y132.866 E7.89039
G1 X100.208 Y132.101 E7.92043
G1 X99.765 Y131.234 E7.95282
G1 X99.415 Y130.363 E7.98404
G1 X99.152 Y129.499 E8.01407
G1 X98.952 Y128.546 E8.04646
G1 X98.843 Y127.62 E8.07747
G1 X98.816 Y127.025 E8.09728
G1 X98.801 Y126.118 E8.12745
G1 X98.801 Y108.694 E8.70698
G1 X98.811 Y108.017 E8.7295
G1 X98.868 Y107.063 E8.76129
G1 X99.001 Y106.17 E8.79131
G1 X99.22 Y105.257 E8.82254
G1 X99.518 Y104.367 E8.85376
G1 X99.908 Y103.475 E8.88614
G1 X100.343 Y102.683 E8.91619
G1 X100.865 Y101.903 E8.94741
G1 X101.473 Y101.149 E8.97963
G1 X101.934 Y100.659 E9.002
G0 F6000 X101.653 Y100.375
G1 F1200 X101.182 Y100.875 E9.02485
G1 X100.554 Y101.652 E9.05808
G1 X99.992 Y102.49 E9.09164
G1 X99.557 Y103.282 E9.12169
G1 X99.151 Y104.207 E9.15529
G1 X98.831 Y105.164 E9.18885
G1 X98.605 Y106.111 E9.22123
G1 X98.472 Y107.004 E9.25126
G1 X98.412 Y107.993 E9.28422
G1 X98.401 Y108.688 E9.30734
G1 X98.401 Y126.125 E9.88729
G1 X98.416 Y127.032 E9.91746
G1 X98.443 Y127.638 E9.93764
G1 X98.555 Y128.593 E9.96962
G1 X98.769 Y129.615 E10.00435
G1 X99.032 Y130.479 E10.03439
G1 X99.394 Y131.383 E10.06678
G1 X99.869 Y132.314 E10.10154
G1 X100.349 Y133.079 E10.13158
G1 X100.982 Y133.91 E10.16632
G1 X101.678 Y134.675 E10.20072
G1 X102.286 Y135.249 E10.22853
G1 X103.094 Y135.901 E10.26306
G1 X103.874 Y136.421 E10.29424
G1 X104.696 Y136.873 E10.32544
G1 X105.652 Y137.292 E10.36016
G1 X106.542 Y137.59 E10.39138
G1 X107.524 Y137.825 E10.42496
G1 X108.417 Y137.958 E10.45499
G1 X109.39 Y138.017 E10.48741
G1 X110.112 Y138.029 E10.51143
G1 X124.76 Y138.029 E10.99862
G1 X125.567 Y138.018 E11.02547
G1 X126.9 Y137.916 E11.06993
G1 X127.789 Y137.755 E11.09998
G1 X128.729 Y137.5 E11.13237
G1 X129.643 Y137.163 E11.16477
G1 X130.586 Y136.715 E11.1995
G1 X131.364 Y136.256 E11.22954
G1 X132.185 Y135.669 E11.26311
G1 X132.897 Y135.058 E11.29432
G1 X133.125 Y134.845 E11.30469
G1 X133.866 Y134.078 E11.34017
G1 X134.432 Y133.374 E11.37021
G1 X134.994 Y132.537 E11.40374
G1 X135.478 Y131.65 E11.43735
G1 X135.84 Y130.822 E11.46741
G1 X136.152 Y129.902 E11.49972
G1 X136.396 Y128.884 E11.53453
G1 X136.528 Y127.99 E11.56459
G1 X136.588 Y127.003 E11.59748
G1 X136.599 Y126.266 E11.622
G1 X136.6 Y109.012 E12.19587
G1 X136.583 Y107.959 E12.23089
G1 X136.559 Y107.393 E12.24974
G1 X136.439 Y106.369 E12.28403
G1 X136.257 Y105.484 E12.31408
G1 X135.978 Y104.55 E12.3465
G1 X135.591 Y103.581 E12.3812
G1 X135.182 Y102.776 E12.41124
G1 X134.669 Y101.949 E12.4436
G1 X134.039 Y101.114 E12.47839
G1 X133.319 Y100.321 E12.51402
G1 X132.715 Y99.75 E12.54166
G1 X131.936 Y99.122 E12.57494
G1 X131.098 Y98.561 E12.60849
G1 X130.306 Y98.126 E12.63854
G1 X129.381 Y97.72 E12.67214
G1 X128.459 Y97.41 E12.70449
G1 X127.477 Y97.175 E12.73807
G1 X126.584 Y97.042 E12.7681
G1 X125.611 Y96.983 E12.80053
G1 X124.737 Y96.97 E12.8296
G1 X110.249 Y96.971 E13.31147
G1 X109.453 Y96.981 E13.33795
G1 X108.813 Y97.008 E13.35925
G1 X107.857 Y97.121 E13.39127
G1 X106.833 Y97.335 E13.42607
G1 X105.97 Y97.598 E13.45607
G1 X105.067 Y97.96 E13.48843
G1 X104.136 Y98.436 E13.52321
G1 X103.372 Y98.916 E13.55322
G1 X102.541 Y99.549 E13.58796
G1 X101.873 Y100.157 E13.618
G1 X101.653 Y100.375 E13.62831
G1 F2700 E8.62831
;MESH:yoto-card-holder.stl
G0 F6000 X108.826 Y107.822
G0 X125 Y126.429
;TYPE:WALL-INNER
G1 F2700 E13.62831
G1 F1200 X125 Y108.571 E14.22226
G1 X110 Y108.571 E14.72117
G1 X110 Y126.429 E15.31513
G1 X125 Y126.429 E15.81403
G0 F6000 X125.363 Y126.828
;TYPE:WALL-OUTER
G1 F1200 X125.4 Y126.789 E15.81582
G1 X125.4 Y108.17 E16.43509
G1 X109.64 Y108.171 E16.95927
G1 X109.6 Y108.209 E16.9611
G1 X109.6 Y126.83 E17.58044
G1 X125.363 Y126.828 E18.10472
G0 F6000 X125.13 Y126.559
G0 X124.64 Y126.329
G0 X124.64 Y126.069
;TYPE:SKIN
G1 F1200 X110.36 Y126.069 E18.57967
G1 X110.36 Y108.931 E19.14969
G1 X124.64 Y108.931 E19.62464
G1 X124.64 Y126.069 E20.19465
G0 F6000 X124.64 Y126.329
G0 X111.16 Y126.329
G0 X111.16 Y125.868
G1 F1200 X110.558 Y125.266 E20.22297
G0 F6000 X110.558 Y124.701
G1 F1200 X111.726 Y125.868 E20.27788
G0 F6000 X112.292 Y125.868
G1 F1200 X110.558 Y124.135 E20.35942
G0 F6000 X110.558 Y123.569
G1 F1200 X112.857 Y125.868 E20.46756
G0 F6000 X113.423 Y125.868
G1 F1200 X110.558 Y123.004 E20.6023
G0 F6000 X110.558 Y122.438
G1 F1200 X113.989 Y125.868 E20.76366
G0 F6000 X114.554 Y125.868
G1 F1200 X110.558 Y121.872 E20.95162
G0 F6000 X110.558 Y121.306
G1 F1200 X115.12 Y125.868 E21.1662
G0 F6000 X115.686 Y125.868
G1 F1200 X110.558 Y120.741 E21.40738
G0 F6000 X110.558 Y120.175
G1 F1200 X116.251 Y125.868 E21.67516
G0 F6000 X116.817 Y125.868
G1 F1200 X110.558 Y119.609 E21.96957
G0 F6000 X110.558 Y119.044
G1 F1200 X117.383 Y125.868 E22.29057
G0 F6000 X117.948 Y125.868
G1 F1200 X110.558 Y118.478 E22.63817
G0 F6000 X110.558 Y117.912
G1 F1200 X118.514 Y125.868 E23.0124
G0 F6000 X119.08 Y125.868
G1 F1200 X110.558 Y117.347 E23.41322
G0 F6000 X110.558 Y116.781
G1 F1200 X119.646 Y125.868 E23.84067
G0 F6000 X120.211 Y125.868
G1 F1200 X110.558 Y116.215 E24.29472
G0 F6000 X110.558 Y115.65
G1 F1200 X120.777 Y125.868 E24.77537
G0 F6000 X121.343 Y125.868
G1 F1200 X110.558 Y115.084 E25.28264
G0 F6000 X110.558 Y114.518
G1 F1200 X121.908 Y125.868 E25.81651
G0 F6000 X122.474 Y125.868
G1 F1200 X110.558 Y113.953 E26.37697
G0 F6000 X110.558 Y113.387
G1 F1200 X123.04 Y125.868 E26.96407
G0 F6000 X123.605 Y125.868
G1 F1200 X110.558 Y112.821 E27.57776
G0 F6000 X110.558 Y112.256
G1 F1200 X124.171 Y125.868 E28.21805
G0 F6000 X124.44 Y125.571
G1 F1200 X110.558 Y111.69 E28.87099
G0 F6000 X110.558 Y111.124
G1 F1200 X124.44 Y125.005 E29.52393
G0 F6000 X124.44 Y124.44
G1 F1200 X110.558 Y110.558 E30.1769
G0 F6000 X110.558 Y109.993
G1 F1200 X124.44 Y123.874 E30.82984
G0 F6000 X124.44 Y123.308
G1 F1200 X110.558 Y109.427 E31.48279
G0 F6000 X110.827 Y109.13
G1 F1200 X124.44 Y122.743 E32.1231
G0 F6000 X124.44 Y122.177
G1 F1200 X111.393 Y109.13 E32.73679
G0 F6000 X111.959 Y109.13
G1 F1200 X124.44 Y121.611 E33.32386
G0 F6000 X124.44 Y121.046
G1 F1200 X112.524 Y109.13 E33.88435
G0 F6000 X113.09 Y109.13
G1 F1200 X124.44 Y120.48 E34.41822
G0 F6000 X124.44 Y119.914
G1 F1200 X113.656 Y109.13 E34.92547
G0 F6000 X114.221 Y109.13
G1 F1200 X124.44 Y119.349 E35.40614
G0 F6000 X124.44 Y118.783
G1 F1200 X114.787 Y109.13 E35.86019
G0 F6000 X115.353 Y109.13
G1 F1200 X124.44 Y118.217 E36.28761
G0 F6000 X124.44 Y117.651
G1 F1200 X115.918 Y109.13 E36.68844
G0 F6000 X116.484 Y109.13
G1 F1200 X124.44 Y117.086 E37.06266
G0 F6000 X124.44 Y116.52
G1 F1200 X117.05 Y109.13 E37.41026
G0 F6000 X117.615 Y109.13
G1 F1200 X124.44 Y115.954 E37.73127
G0 F6000 X124.44 Y115.389
G1 F1200 X118.181 Y109.13 E38.02567
G0 F6000 X118.747 Y109.13
G1 F1200 X124.44 Y114.823 E38.29345
G0 F6000 X124.44 Y114.257
G1 F1200 X119.312 Y109.13 E38.53463
G0 F6000 X119.878 Y109.13
G1 F1200 X124.44 Y113.692 E38.74922
G0 F6000 X124.44 Y113.126
G1 F1200 X120.444 Y109.13 E38.93718
G0 F6000 X121.01 Y109.13
G1 F1200 X124.44 Y112.56 E39.09851
G0 F6000 X124.44 Y111.995
G1 F1200 X121.575 Y109.13 E39.23327
G0 F6000 X122.141 Y109.13
G1 F1200 X124.44 Y111.429 E39.34141
G0 F6000 X124.44 Y110.863
G1 F1200 X122.707 Y109.13 E39.42293
G0 F6000 X123.272 Y109.13
G1 F1200 X124.44 Y110.298 E39.47787
G0 F6000 X124.44 Y109.732
G1 F1200 X123.838 Y109.13 E39.50618
;MESH:NONMESH
G0 F300 X123.838 Y109.13 Z0.4
G0 F6000 X123.838 Y108.671
G0 X124.828 Y108.743
G0 X125 Y126.428
;TIME_ELAPSED:69.728367
;LAYER:1
M106 S85
;TYPE:WALL-INNER
;MESH:yoto-card-holder.stl
G1 F1350 X125 Y108.573 E40.10004
G1 X110.001 Y108.572 E40.59891
G1 X110 Y126.427 E41.19277
G1 X125 Y126.428 E41.69167
G1 F2700 E36.69167
G0 F7500 X124.729 Y126.327
G0 X109.87 Y126.557
G0 X109.629 Y126.827
;TYPE:WALL-OUTER
G1 F2700 E41.69167
G1 F1350 X125.368 Y126.824 E42.21515
G1 X125.4 Y126.746 E42.21796
G1 X125.4 Y108.211 E42.83443
G1 X125.371 Y108.173 E42.83602
G1 X109.637 Y108.172 E43.35934
G1 X109.601 Y108.211 E43.36111
G1 X109.6 Y126.789 E43.97901
G1 X109.629 Y126.827 E43.9806
G0 F7500 X109.87 Y126.557
G0 X124.639 Y126.327
G0 X124.64 Y126.068
;TYPE:SKIN
G1 F1350 X110.36 Y126.067 E44.45556
G1 X110.361 Y108.932 E45.02547
G1 X124.64 Y108.933 E45.50039
G1 X124.64 Y126.068 E46.0703
G0 F7500 X124.165 Y125.867
G1 F1350 X124.439 Y125.593 E46.08319
G0 F7500 X124.439 Y125.027
G1 F1350 X123.6 Y125.867 E46.12268
G0 F7500 X123.034 Y125.867
G1 F1350 X124.439 Y124.462 E46.18877
G0 F7500 X124.439 Y123.896
G1 F1350 X122.468 Y125.867 E46.28148
G0 F7500 X121.903 Y125.867
G1 F1350 X124.439 Y123.33 E46.40078
G0 F7500 X124.439 Y122.765
G1 F1350 X121.337 Y125.867 E46.54669
G0 F7500 X120.771 Y125.867
G1 F1350 X124.439 Y122.199 E46.71922
G0 F7500 X124.439 Y121.633
G1 F1350 X120.206 Y125.867 E46.91836
G0 F7500 X119.64 Y125.867
G1 F1350 X124.439 Y121.067 E47.14411
G0 F7500 X124.439 Y120.502
G1 F1350 X119.074 Y125.867 E47.39646
G0 F7500 X118.508 Y125.867
G1 F1350 X124.439 Y119.936 E47.67544
G0 F7500 X124.439 Y119.37
G1 F1350 X117.943 Y125.867 E47.98101
G0 F7500 X117.377 Y125.867
G1 F1350 X124.439 Y118.805 E48.31319
G0 F7500 X124.439 Y118.239
G1 F1350 X116.811 Y125.867 E48.67199
G0 F7500 X116.246 Y125.867
G1 F1350 X124.439 Y117.673 E49.05738
G0 F7500 X124.439 Y117.108
G1 F1350 X115.68 Y125.867 E49.46938
G0 F7500 X115.114 Y125.867
G1 F1350 X124.439 Y116.542 E49.908
G0 F7500 X124.439 Y115.976
G1 F1350 X114.549 Y125.867 E50.37322
G0 F7500 X113.983 Y125.867
G1 F1350 X124.439 Y115.411 E50.86504
G0 F7500 X124.439 Y114.845
G1 F1350 X113.417 Y125.867 E51.38348
G0 F7500 X112.852 Y125.867
G1 F1350 X124.439 Y114.279 E51.92852
G0 F7500 X124.439 Y113.714
G1 F1350 X112.286 Y125.867 E52.50016
G0 F7500 X111.72 Y125.867
G1 F1350 X124.439 Y113.148 E53.09842
G0 F7500 X124.439 Y112.582
G1 F1350 X111.155 Y125.867 E53.72328
G0 F7500 X110.589 Y125.867
G1 F1350 X124.439 Y112.017 E54.37474
G0 F7500 X124.439 Y111.451
G1 F1350 X110.56 Y125.33 E55.02757
G0 F7500 X110.56 Y124.764
G1 F1350 X124.439 Y110.885 E55.6804
G0 F7500 X124.439 Y110.319
G1 F1350 X110.56 Y124.199 E56.33324
G0 F7500 X110.56 Y123.633
G1 F1350 X124.439 Y109.754 E56.98607
G0 F7500 X124.439 Y109.188
G1 F1350 X110.56 Y123.067 E57.6389
G0 F7500 X110.56 Y122.502
G1 F1350 X123.929 Y109.132 E58.26776
G0 F7500 X123.363 Y109.132
G1 F1350 X110.56 Y121.936 E58.86999
G0 F7500 X110.56 Y121.37
